X:1
T:Temple (Hopkins), 84.84.88.84
T:Temple (Hopkins), 84.84.88.84
T:Edward John Hopkins, 1869
T:Public Domain Courtesy of the Cyber Hymnal™
C:Edward John Hopkins, 1869
Z:Public Domain
Z:Courtesy of the Cyber Hymnal™
%%score ( 1 2 ) ( 3 4 )
L:1/8
Q:1/4=110
M:4/4
K:D
V:1 treble 
V:2 treble 
V:3 bass 
V:4 bass 
V:1
 [DF]2 [DF]2 [DG]2 [DF]2 | [CF]2 [CE]2 [CE]2 D2 | [DB]4 [DA]2 [CE]2 | [DF]8 | %4
 [DF]2 [DF]2 [DG]2 [DF]2 | [CF]2 [CE]2 D2 [DF]2 | [FB]4 [DA]2 [D^G]2 | [CA]8 | %8
 [EA]2 [EA]2 [Ad]2 [Ac]2 | [Ac]2 [GB]2 [EA]2 [DF]2 | [DF]2 [DF]2 [DB]2 [DA]2 | %11
 [DA]2 [DG]2 [EG]2 [EF]2 | [DF]2 [DF]2 [^DG]2 [DF]2 | E2 [EB]2 [Ec]2 [Dd]2 | [DA]4 [CG]2 [CE]2 | %15
 D8 |] %16
V:2
 x8 | x6 D2 | x8 | x8 | x8 | x4 D2 x2 | x8 | x8 | x8 | x8 | x8 | x8 | x8 | E2 x6 | x8 | D8 |] %16
V:3
 [D,A,]2 [D,A,]2 [D,B,]2 [D,A,]2 | [A,,A,]2 [A,,A,]2 [B,,G,]2 [B,,F,]2 | %2
 (G,2 F,2) [A,,E,]2 [A,,A,]2 | [D,A,]8 | [D,A,]2 [D,A,]2 [D,B,]2 [D,A,]2 | %5
 [F,^A,]2 [F,A,]2 [B,,B,]2 [B,,B,]2 | [D,B,]4 [E,B,]2 [E,B,]2 | [A,,A,]8 | %8
 [A,C]2 [G,C]2 [F,D]2 [F,D]2 | [G,D]2 [B,,D]2 [C,A,]2 [D,A,]2 | [D,D]2 [D,C]2 [G,B,]2 F,2 | %11
 [B,,F,]2 [B,,B,]2 [^A,,C]2 [A,,C]2 | [B,,B,]2 B,2 [A,B,]2 [A,B,]2 | %13
 [G,B,]2 [G,B,]2 [E,G,]2 [E,G,]2 | [A,,F,]4 [A,,E,]2 [A,,G,]2 | [D,F,]8 |] %16
V:4
 x8 | x8 | G,,4 x4 | x8 | x8 | x8 | x8 | x8 | x8 | x8 | x6 F,2 | x8 | x2 B,2 x4 | x8 | x8 | x8 |] %16

